;FLAVOR:Marlin
;TIME:3157
;Filament used: 4.20864m
;Layer height: 0.6
;MINX:124.995
;MINY:128.945
;MINZ:0.6
;MAXX:174.728
;MAXY:171.996
;MAXZ:56.4
;TARGET_MACHINE.NAME:Creality CR-10S
;Generated with Cura_SteamEngine 5.7.0
M140 S50
M105
M190 S50
M104 S200
M105
M109 S200
M82 ;absolute extrusion mode
M201 X500.00 Y500.00 Z100.00 E5000.00 ;Setup machine max acceleration
M203 X500.00 Y500.00 Z10.00 E50.00 ;Setup machine max feedrate
M204 P500.00 R1000.00 T500.00 ;Setup Print/Retract/Travel acceleration
M205 X8.00 Y8.00 Z0.40 E5.00 ;Setup Jerk
M220 S100 ;Reset Feedrate
M221 S100 ;Reset Flowrate

G28 ;Home

G92 E0 ;Reset Extruder
G1 Z2.0 F3000 ;Move Z Axis up
G1 X10.1 Y20 Z0.28 F5000.0 ;Move to start position
G1 X10.1 Y200.0 Z0.28 F1500.0 E15 ;Draw the first line
G1 X10.4 Y200.0 Z0.28 F5000.0 ;Move to side a little
G1 X10.4 Y20 Z0.28 F1500.0 E30 ;Draw the second line
G92 E0 ;Reset Extruder
G1 Z2.0 F3000 ;Move Z Axis up

G92 E0
G92 E0
G1 F2700 E-5
;LAYER_COUNT:94
;LAYER:0
M106 S255
;MESH:base.obj
G0 F6000 X150.136 Y150.031 Z0.6
;TYPE:WALL-OUTER
G1 F2700 E0
G1 F567.4 X149.886 Y150.003 E0.00885
;MESH:NONMESH
G0 F300 X149.886 Y150.003 Z1.2
G0 F6000 X150.583 Y150.171
;TIME_ELAPSED:4.848651
;LAYER:1
;TYPE:WALL-OUTER
;MESH:base.obj
G1 F661.2 X150.141 Y150.203 E0.04898
G1 X149.719 Y150.199 E0.08719
G1 X149.487 Y150.172 E0.10834
G1 X149.466 Y149.854 E0.1372
G1 F657.5 X149.87 Y149.829 E0.17405
G1 X150.189 Y149.844 E0.20313
G1 F661.2 X150.536 Y149.904 E0.23502
G1 X150.573 Y149.947 E0.24015
G1 X150.583 Y150.171 E0.26046
;MESH:NONMESH
G0 F300 X150.583 Y150.171 Z1.8
G0 F7500 X150.775 Y150.201
;TIME_ELAPSED:5.291993
;LAYER:2
;TYPE:WALL-OUTER
;MESH:base.obj
G1 F480 X150.455 Y150.243 E0.30071
G1 F477.1 X149.94 Y150.278 E0.36548
G1 F475.2 X149.294 Y150.213 E0.44727
G1 F477.1 X149.289 Y149.827 E0.49571
G1 F478.1 X149.979 Y149.756 E0.58257
G1 F480 X150.573 Y149.825 E0.65715
G1 X150.733 Y149.955 E0.68286
G1 X150.775 Y150.201 E0.71399
;MESH:NONMESH
G0 F300 X150.775 Y150.201 Z2.4
G0 F9000 X151.092 Y150.321
;TIME_ELAPSED:5.940008
;LAYER:3
;TYPE:WALL-OUTER
;MESH:base.obj
G1 F600 X150.789 Y150.369 E0.7446
G1 X150.267 Y150.424 E0.79698
G1 X149.864 Y150.432 E0.83719
G1 X149.471 Y150.394 E0.87659
G1 X148.988 Y150.32 E0.92535
G1 X148.977 Y149.71 E0.98622
G1 X149.343 Y149.649 E1.02325
G1 X149.654 Y149.616 E1.05445
G1 X149.933 Y149.601 E1.08233
G1 X150.275 Y149.616 E1.11649
G1 X150.687 Y149.67 E1.15795
G1 X151.027 Y149.829 E1.1954
G1 X151.085 Y150.011 E1.21446
G1 X151.092 Y150.321 E1.2454
G0 F9000 X150.928 Y150.074
G0 X149.674 Y150.166
G0 X149.689 Y150.015
;TYPE:SKIN
G1 F499 X150.247 Y150.019 E1.31236
;MESH:NONMESH
G0 F300 X150.247 Y150.019 Z3
G0 F9000 X150.266 Y149.865
G0 X150.928 Y150.074
G0 X151.362 Y150.396
;TIME_ELAPSED:6.929071
;LAYER:4
;TYPE:WALL-OUTER
;MESH:base.obj
G1 F600 X150.479 Y150.518 E1.4013
G1 X149.963 Y150.54 E1.45283
G1 X149.518 Y150.509 E1.49734
G1 X149.109 Y150.462 E1.53842
G1 X148.724 Y150.403 E1.57728
G1 X148.717 Y149.631 E1.65432
G1 X149.485 Y149.52 E1.73175
G1 X150.065 Y149.485 E1.78972
G1 X150.538 Y149.522 E1.83706
G1 X150.942 Y149.584 E1.87785
G1 X151.259 Y149.695 E1.91136
G1 X151.341 Y149.866 E1.93028
G1 X151.362 Y150.396 E1.98321
G1 F2700 E-3.01679
G0 F9000 X151.095 Y150.285
G0 X149.551 Y149.763
G0 X149.558 Y150.011
;TYPE:SKIN
G1 F2700 E1.98321
G1 F354 X150.449 Y150.018 E2.13391
;MESH:NONMESH
G0 F300 X150.449 Y150.018 Z3.6
G0 F9000 X150.462 Y150.271
G0 X151.095 Y150.285
G0 X151.623 Y150.48
;TIME_ELAPSED:8.517193
;LAYER:5
;TYPE:WALL-OUTER
;MESH:base.obj
G1 F600 X150.723 Y150.613 E2.22468
G1 X150.236 Y150.643 E2.27337
G1 X149.947 Y150.644 E2.30221
G1 X149.442 Y150.616 E2.35267
G1 X148.943 Y150.556 E2.40282
G1 X148.5 Y150.482 E2.44764
G1 X148.464 Y150.444 E2.45286
G1 X148.464 Y149.547 E2.54236
G1 X149.361 Y149.415 E2.63283
G1 X149.901 Y149.385 E2.68679
G1 X150.192 Y149.384 E2.71583
G1 X150.737 Y149.427 E2.77038
G1 X151.158 Y149.488 E2.81283
G1 X151.505 Y149.587 E2.84883
G1 X151.593 Y149.792 E2.87109
G1 X151.623 Y150.48 E2.93981
G0 F9000 X151.231 Y150.158
;TYPE:SKIN
G1 F554.3 X150.705 Y150.234 E2.99721
G1 F532.2 X149.965 Y150.249 E3.08048
G1 F525.2 X149.491 Y150.234 E3.13454
G1 F543 X148.843 Y150.153 E3.20654
G1 F546.7 X148.841 Y149.874 E3.2371
G1 X149.386 Y149.79 E3.29749
G1 F529.8 X150.168 Y149.778 E3.38586
G1 F532.2 X150.665 Y149.797 E3.44182
G1 F551.7 X151.218 Y149.874 E3.5024
G1 F554.3 X151.231 Y150.158 E3.53311
;MESH:NONMESH
G0 F300 X151.231 Y150.158 Z4.2
G0 F9000 X151.872 Y150.553
;TIME_ELAPSED:10.199729
;LAYER:6
;TYPE:WALL-OUTER
;MESH:base.obj
G1 F600 X150.779 Y150.732 E3.64362
G1 X150.356 Y150.752 E3.68588
G1 X149.574 Y150.744 E3.76391
G1 X149.189 Y150.713 E3.80245
G1 X148.242 Y150.553 E3.89828
G1 X148.202 Y150.51 E3.90414
G1 X148.211 Y149.473 E4.00762
G1 X149.208 Y149.315 E4.10834
G1 X149.49 Y149.292 E4.13657
G1 X150.262 Y149.281 E4.21361
G1 X150.888 Y149.323 E4.27621
G1 X151.372 Y149.405 E4.32519
G1 X151.762 Y149.496 E4.36515
G1 X151.838 Y149.617 E4.37941
G1 X151.869 Y150.177 E4.43537
G1 X151.872 Y150.553 E4.47289
G0 F9000 X151.475 Y150.234
;TYPE:SKIN
G1 F452 X150.731 Y150.298 E4.57181
G1 F427 X150.35 Y150.306 E4.62523
G1 F421.1 X149.581 Y150.301 E4.73457
G1 F426.3 X149.255 Y150.278 E4.78047
G1 F429.3 X148.642 Y150.173 E4.8672
G1 X148.645 Y149.847 E4.91266
G1 X149.372 Y149.731 E5.01531
G1 F423.3 X150.229 Y149.728 E5.13653
G1 F431.7 X150.828 Y149.751 E5.21967
G1 F476.2 X151.256 Y149.787 E5.27367
G1 F509.6 X151.451 Y149.83 E5.29713
G1 F488.8 X151.475 Y150.234 E5.3467
;MESH:NONMESH
G0 F300 X151.475 Y150.234 Z4.8
G0 F9000 X152.082 Y150.636
;TIME_ELAPSED:12.292724
;LAYER:7
;TYPE:WALL-OUTER
;MESH:base.obj
G1 F600 X150.854 Y150.84 E5.47091
G1 X150.475 Y150.86 E5.50878
G1 X149.505 Y150.852 E5.60557
G1 X149.117 Y150.821 E5.6444
G1 X147.996 Y150.634 E5.7578
G1 X147.95 Y150.577 E5.76511
G1 X147.956 Y149.426 E5.87996
G1 X148.004 Y149.39 E5.88595
G1 X149.025 Y149.225 E5.98915
G1 X149.388 Y149.184 E6.0256
G1 X150.299 Y149.177 E6.1165
G1 X150.748 Y149.196 E6.16134
G1 X151.038 Y149.228 E6.19045
G1 X151.585 Y149.319 E6.24578
G1 X151.998 Y149.407 E6.28792
G1 X152.098 Y149.556 E6.30582
G1 X152.119 Y150.278 E6.37789
G1 X152.116 Y150.584 E6.40843
G1 X152.082 Y150.636 E6.41463
G1 F2700 E1.41463
G0 F9000 X151.966 Y150.398
G0 X151 Y150.243
G0 X149.165 Y150.14
G0 X148.312 Y150.318
;TYPE:SKIN
G1 F2700 E6.41463
G1 F600 X148.312 Y149.706 E6.47569
G1 X149.091 Y149.578 E6.55446
G1 F558.1 X149.56 Y149.588 E6.60478
G1 F510.6 X149.44 Y149.666 E6.62156
G1 F545.5 X149.387 Y149.851 E6.64268
G1 F586.8 X149.378 Y150.22 E6.68034
G1 F502.1 X149.508 Y150.423 E6.70909
G1 F507.4 X149.149 Y150.46 E6.75167
G1 F594.1 X148.312 Y150.318 E6.83723
G0 F9000 X149.14 Y150.14
G0 X150.456 Y150.16
G0 X150.454 Y150.435
G1 F464.2 X149.87 Y150.444 E6.91255
G1 F460.7 X149.508 Y150.423 E6.95968
G0 F9000 X149.025 Y150.014
G1 F576.9 X148.999 Y150.059 E6.96507
G1 X148.921 Y150.014 E6.97441
G1 X148.998 Y149.969 E6.98367
G0 F9000 X149.542 Y149.6
G1 F470.6 X149.963 Y149.59 E7.03724
G1 F472.4 X150.435 Y149.602 E7.09708
G0 F9000 X151.063 Y149.971
G1 F550.5 X151.01 Y149.971 E7.10284
G1 X150.983 Y150.017 E7.10864
G1 X151.011 Y150.063 E7.1145
G1 X151.064 Y150.063 E7.12026
G1 X151.091 Y150.017 E7.12606
G0 F9000 X151.752 Y150.323
G1 F592.6 X150.802 Y150.477 E7.22329
G1 F510.6 X150.454 Y150.435 E7.26439
G1 X150.613 Y150.233 E7.29453
G1 F576.9 X150.627 Y149.758 E7.34384
G1 F511.7 X150.435 Y149.602 E7.37278
G1 F492.8 X150.814 Y149.561 E7.41909
G1 F559.4 X151.368 Y149.639 E7.47896
G1 F600 X151.739 Y149.719 E7.51683
G1 X151.752 Y150.323 E7.57712
G0 F9000 X150.678 Y150.191
G1 F2700 E2.57712
;MESH:NONMESH
G0 F300 X150.678 Y150.191 Z5.4
G0 F9000 X150.677 Y150.151
G0 X151 Y150.243
G0 X151.966 Y150.398
G0 X152.321 Y150.715
;TIME_ELAPSED:16.031697
;LAYER:8
;TYPE:WALL-OUTER
;MESH:base.obj
G1 F2700 E7.57712
G1 F600 X151.014 Y150.929 E7.70927
G1 X150.722 Y150.956 E7.73853
G1 X149.844 Y150.964 E7.82614
G1 X149.444 Y150.956 E7.86606
G1 X148.99 Y150.913 E7.91156
G1 X147.752 Y150.711 E8.03672
G1 X147.701 Y150.64 E8.04544
G1 X147.696 Y149.369 E8.17227
G1 X147.759 Y149.312 E8.18074
G1 X148.851 Y149.138 E8.29108
G1 X149.295 Y149.088 E8.33566
G1 X149.781 Y149.069 E8.38419
G1 X150.366 Y149.068 E8.44256
G1 X151.056 Y149.108 E8.51153
G1 X152.229 Y149.315 E8.63038
G1 X152.349 Y149.493 E8.6518
G1 X152.371 Y150.157 E8.71809
G1 X152.364 Y150.619 E8.76419
G1 X152.321 Y150.715 E8.77469
G0 F9000 X152.215 Y150.476
G0 X151.266 Y150.324
G0 X151.204 Y150.455
;TYPE:SKIN
G1 F437.2 X151.386 Y150.185 E8.81928
G1 X151.375 Y149.885 E8.86039
G1 F432.4 X151.198 Y149.633 E8.90303
G1 F423.3 X151.007 Y149.554 E8.93226
G1 F427 X151.92 Y149.701 E9.0619
G1 F437.2 X151.941 Y150.332 E9.14837
G1 X151.204 Y150.455 E9.25069
G0 F9000 X151.007 Y149.554
G1 F436.4 X150.557 Y149.504 E9.31281
G1 F466.9 X150.071 Y149.478 E9.37522
G1 F465.1 X149.447 Y149.498 E9.45558
G1 F445.3 X148.871 Y149.573 E9.53368
G0 F9000 X148.931 Y150.466
G1 F441.2 X148.136 Y150.329 E9.64315
G1 F434.8 X148.133 Y149.695 E9.73045
G1 F436.4 X148.871 Y149.573 E9.83307
G1 X148.684 Y149.835 E9.87724
G1 F434.8 X148.688 Y150.204 E9.92805
G1 F441.2 X148.931 Y150.466 E9.97654
G1 F449.4 X149.46 Y150.53 E10.04752
G1 F463.3 X149.935 Y150.551 E10.10896
G1 F469.7 X150.509 Y150.539 E10.18214
G1 F447.8 X150.968 Y150.494 E10.24381
G1 F434.8 X151.204 Y150.455 E10.27675
G0 F9000 X150.874 Y149.984
G1 F2700 E5.27675
;MESH:NONMESH
G0 F300 X150.874 Y149.984 Z6
G0 F9000 X148.821 Y150.325
G0 X147.957 Y150.592
G0 X147.513 Y150.791
;TIME_ELAPSED:19.750850
;LAYER:9
;TYPE:WALL-OUTER
;MESH:base.obj
G1 F2700 E10.27675
G1 F600 X147.453 Y150.705 E10.28721
G1 X147.448 Y149.311 E10.4263
G1 X147.515 Y149.234 E10.43649
G1 X148.699 Y149.046 E10.55611
G1 X149.199 Y148.988 E10.60633
G1 X149.749 Y148.968 E10.66125
G1 X150.412 Y148.965 E10.7274
G1 X150.995 Y148.992 E10.78564
G1 X152.007 Y149.153 E10.88789
G1 X152.474 Y149.25 E10.93548
G1 X152.6 Y149.424 E10.95691
G1 X152.615 Y150.128 E11.02717
G1 X152.608 Y150.582 E11.07248
G1 X152.521 Y150.77 E11.09315
G1 X152.21 Y150.831 E11.12477
G1 X152.101 Y150.864 E11.13614
G1 X151.162 Y151.017 E11.23107
G1 X150.654 Y151.064 E11.28197
G1 X150.017 Y151.068 E11.34553
G1 X149.384 Y151.056 E11.40871
G1 X148.87 Y151.005 E11.46024
G1 X147.513 Y150.791 E11.59732
G0 F9000 X147.708 Y150.668
G0 X148.559 Y150.4
G0 X148.669 Y150.547
;TYPE:SKIN
G1 F450.3 X147.884 Y150.411 E11.70325
G1 F440.4 X147.882 Y149.614 E11.8116
G1 F439.6 X148.615 Y149.498 E11.91268
G1 X148.431 Y149.753 E11.9555
G1 F440.4 X148.428 Y150.286 E12.02797
G1 F450.3 X148.669 Y150.547 E12.0752
G0 F9000 X148.712 Y150.277
G0 X148.656 Y149.763
G0 X148.615 Y149.498
G1 F445.3 X149.228 Y149.413 E12.15841
G1 F466.9 X149.9 Y149.376 E12.2447
G1 F481.9 X150.223 Y149.375 E12.28483
G1 F468.8 X150.718 Y149.401 E12.34814
G1 F448.6 X151.186 Y149.461 E12.4111
G1 F427.8 X151.43 Y149.515 E12.44608
G0 F9000 X151.389 Y149.757
G0 X151.421 Y150.269
G0 X151.463 Y150.528
G1 F442.8 X151.642 Y150.26 E12.48965
G1 F442 X151.625 Y149.78 E12.55471
G1 F427.8 X151.43 Y149.515 E12.60075
G1 X151.862 Y149.57 E12.66169
G1 F439.6 X152.168 Y149.628 E12.70411
G1 F441.2 X152.18 Y150.122 E12.77117
G1 F442.8 X152.176 Y150.412 E12.81038
G1 F442 X151.463 Y150.528 E12.90823
G1 F439.6 X151.093 Y150.589 E12.9593
G1 F447.8 X150.693 Y150.637 E13.01317
G1 F467.8 X150.236 Y150.655 E13.0717
G1 F478.1 X149.915 Y150.655 E13.11189
G1 F469.7 X149.437 Y150.638 E13.17286
G1 F460.7 X148.669 Y150.547 E13.27337
G0 F9000 X148.944 Y149.98
G1 F2700 E8.27337
;MESH:NONMESH
G0 F300 X148.944 Y149.98 Z6.6
G0 F9000 X148.559 Y150.4
G0 X147.708 Y150.668
G0 X147.27 Y150.867
;TIME_ELAPSED:23.733511
;LAYER:10
;TYPE:WALL-OUTER
;MESH:base.obj
G1 F2700 E13.27337
G1 F600 X147.2 Y150.771 E13.28523
G1 X147.2 Y149.257 E13.43629
G1 X147.265 Y149.16 E13.44795
G1 X148.568 Y148.957 E13.57953
G1 X149.124 Y148.888 E13.63543
G1 X149.748 Y148.864 E13.69774
G1 X150.462 Y148.865 E13.76898
G1 X151.107 Y148.9 E13.83344
G1 X152.246 Y149.077 E13.94845
G1 X152.719 Y149.184 E13.99684
G1 X152.853 Y149.375 E14.02012
G1 X152.864 Y150.081 E14.09057
G1 X152.846 Y150.555 E14.1379
G1 X152.749 Y150.762 E14.16071
G1 X152.306 Y150.937 E14.20824
G1 X151.749 Y151.043 E14.26481
G1 X151.337 Y151.106 E14.3064
G1 X150.721 Y151.168 E14.36818
G1 X150.029 Y151.172 E14.43723
G1 X149.32 Y151.156 E14.50799
G1 X148.758 Y151.101 E14.56433
G1 X147.27 Y150.867 E14.71463
G0 F9000 X147.459 Y150.744
G0 X148.298 Y150.473
G0 X148.401 Y150.61
;TYPE:SKIN
G1 F446.9 X147.631 Y150.484 E14.81915
G1 F442.8 X147.632 Y149.538 E14.94705
G1 F444.4 X148.362 Y149.421 E15.04664
G1 X148.177 Y149.674 E15.08886
G1 F442.8 X148.173 Y150.346 E15.17972
G1 F446.9 X148.401 Y150.61 E15.22644
G0 F9000 X148.442 Y150.348
G0 X148.403 Y149.692
G0 X148.362 Y149.421
G1 F457.1 X149.21 Y149.301 E15.3386
G1 F475.2 X149.508 Y149.283 E15.37621
G1 F481.9 X150.281 Y149.272 E15.47225
G1 F474.3 X150.982 Y149.31 E15.56086
G1 F446.9 X151.665 Y149.432 E15.6538
G0 F9000 X151.625 Y149.687
G0 X151.631 Y150.354
G0 X151.678 Y150.618
G1 F446.9 X151.902 Y150.337 E15.70194
G1 F445.3 X151.873 Y149.688 E15.78929
G1 F434 X151.665 Y149.432 E15.83479
G1 X152.091 Y149.491 E15.89411
G1 F440.4 X152.419 Y149.56 E15.93968
G1 F442 X152.433 Y150.056 E16.00689
G1 F446.9 X152.42 Y150.435 E16.05769
G1 F451.1 X152.191 Y150.523 E16.09025
G1 F446.9 X151.678 Y150.618 E16.16014
G1 F458.9 X150.992 Y150.727 E16.25076
G1 F472.4 X150.702 Y150.752 E16.28764
G1 F475.2 X150.341 Y150.761 E16.33313
G1 F481 X149.58 Y150.753 E16.42786
G1 F476.2 X149.159 Y150.723 E16.48093
G1 F461.5 X148.401 Y150.61 E16.58034
G0 F9000 X148.687 Y150.054
G1 F2700 E11.58034
;MESH:NONMESH
G0 F300 X148.687 Y150.054 Z7.2
G0 F9000 X148.298 Y150.473
G0 X147.459 Y150.744
G0 X147.033 Y150.942
;TIME_ELAPSED:28.036970
;LAYER:11
;TYPE:WALL-OUTER
;MESH:base.obj
G1 F2700 E16.58034
G1 F600 X146.952 Y150.839 E16.59341
G1 X146.952 Y149.215 E16.75546
G1 X147.017 Y149.094 E16.76916
G1 X148.443 Y148.868 E16.91322
G1 X149.053 Y148.788 E16.97461
G1 X149.735 Y148.764 E17.0427
G1 X150.518 Y148.76 E17.12083
G1 X151.225 Y148.804 E17.19151
G1 X152.447 Y148.999 E17.31499
G1 X153 Y149.108 E17.37123
G1 X153.108 Y149.276 E17.39116
G1 X153.116 Y150.077 E17.47108
G1 X153.104 Y150.62 E17.52528
G1 X153 Y150.889 E17.55406
G1 X152.567 Y151.008 E17.59886
G1 X151.445 Y151.205 E17.71253
G1 X150.793 Y151.268 E17.77789
G1 X150.036 Y151.276 E17.85343
G1 X149.265 Y151.26 E17.93037
G1 X148.63 Y151.193 E17.99409
G1 X147.033 Y150.942 E18.15539
G0 F9000 X147.21 Y150.818
G0 X148.046 Y150.551
G0 X148.145 Y150.686
;TYPE:SKIN
G1 F448.6 X147.381 Y150.562 E18.25869
G1 F446.1 X147.382 Y149.47 E18.40524
G1 F449.4 X148.106 Y149.349 E18.50302
G1 X147.923 Y149.598 E18.54418
G1 F446.1 X147.919 Y150.422 E18.65477
G1 F448.6 X148.145 Y150.686 E18.70114
G0 F9000 X148.188 Y150.423
G0 X148.149 Y149.624
G0 X148.106 Y149.349
G1 F460.7 X149.092 Y149.203 E18.83069
G1 F480 X149.41 Y149.18 E18.87045
G1 F484.8 X150.497 Y149.172 E19.00468
G1 F467.8 X151.179 Y149.226 E19.09222
G1 F446.9 X151.918 Y149.355 E19.19271
G0 F9000 X151.876 Y149.616
G0 X151.925 Y150.414
G0 X151.97 Y150.678
G1 F450.3 X152.147 Y150.421 E19.2342
G1 F444.4 X152.133 Y149.616 E19.34266
G1 F438 X151.918 Y149.355 E19.38888
G1 X152.356 Y149.422 E19.44945
G1 F439.6 X152.677 Y149.482 E19.49393
G1 F441.2 X152.685 Y150.066 E19.57319
G1 F446.1 X152.678 Y150.55 E19.63815
G1 F450.3 X151.97 Y150.678 E19.73381
G1 F452 X151.38 Y150.782 E19.81316
G1 F467.8 X150.858 Y150.852 E19.88056
G1 F485.8 X150.462 Y150.866 E19.92939
G1 F486.8 X149.511 Y150.858 E20.04635
G1 F481 X149.067 Y150.825 E20.10177
G1 F463.3 X148.145 Y150.686 E20.22225
G0 F9000 X148.432 Y150.128
G1 F2700 E15.22225
;MESH:NONMESH
G0 F300 X148.432 Y150.128 Z7.8
G0 F9000 X148.046 Y150.551
G0 X147.21 Y150.818
G0 X146.797 Y151.013
;TIME_ELAPSED:32.686632
;LAYER:12
;TYPE:WALL-OUTER
;MESH:base.obj
G1 F2700 E20.22225
G1 F600 X146.705 Y150.906 E20.23633
G1 X146.704 Y149.177 E20.40885
G1 X146.769 Y149.024 E20.42544
G1 X148.314 Y148.777 E20.58156
G1 X148.981 Y148.688 E20.6487
G1 X149.721 Y148.661 E20.72259
G1 X150.569 Y148.66 E20.8072
G1 X151.326 Y148.712 E20.88291
G1 X151.892 Y148.797 E20.94002
